# flores

apague
tamanhodatela 170, 170
cordofundo 255, 55, 140
v치para 45, 120
cordol치pis 160, 0, 255
larguradol치pis 3

repita 8 [
  repita 4 [
    pf 20
    pd 30
  ]
  repita 7 [
    pf 10
    pd 15
  ]
  repita 9 [
    pf 3
    pd 10
  ]
]

v치para 145, 145
dir 0

